X: 21970
T: Kitty Lie Over
R: jig
M: 6/8
K: Dmajor
AFD DFA|B2 d BAF|ABA F2 D|FEE EFG|
AFD DFA|B2 d BAF|A2 A F2 E|FDD d2 B|
AFD DFA|B2 B BAF|ABA F2 D|FEE EFG|
AFD DFA|B2 d BAF|ABA F2 E|FDD D2 e||
|:fdd dcd|fdd d2 e|f2 f def|g2 g efg|
fed Bcd|ABA F2 G|ABA F2 E|1 FDD D2 e:|2 FDD d2 B||

